web/assets/img/functions/910.svg

<svg width="512" height="512" viewBox="0 0 512 512" fill="none" xmlns="http://www.w3.org/2000/svg">
    <path fill-rule="evenodd" clip-rule="evenodd"
          d="M86 87C86 79.2681 92.268 73 100 73H412C419.732 73 426 79.268 426 87V496C426 503.732 419.732 510 412 510H100C92.268 510 86 503.732 86 496V87ZM106 93V490H406V93H106Z"
          fill="#282828"/>
    <path fill-rule="evenodd" clip-rule="evenodd"
          d="M126 83C126 77.4772 130.477 73 136 73H242C247.523 73 252 77.4772 252 83V464C252 469.523 247.523 474 242 474H136C130.477 474 126 469.523 126 464V83ZM146 93V454H232V93H146Z"
          fill="#282828"/>
    <path fill-rule="evenodd" clip-rule="evenodd"
          d="M264 83C264 77.4772 268.477 73 274 73H380C385.523 73 390 77.4772 390 83V464C390 469.523 385.523 474 380 474H274C268.477 474 264 469.523 264 464V83ZM284 93V454H370V93H284Z"
          fill="#282828"/>
    <path fill-rule="evenodd" clip-rule="evenodd"
          d="M98.5983 5.01564C100.486 2.48839 103.456 1 106.61 1H405.391C408.545 1 411.514 2.48839 413.402 5.01564L437.305 37.0156C439.569 40.0474 439.929 44.0978 438.233 47.4809C436.537 50.8639 433.077 53 429.293 53H82.7076C78.9234 53 75.4633 50.8639 73.7677 47.4809C72.072 44.0978 72.4313 40.0474 74.6959 37.0156L98.5983 5.01564ZM111.622 21L102.659 33H409.342L400.378 21H111.622Z"
          fill="#00D151"/>
    <path fill-rule="evenodd" clip-rule="evenodd"
          d="M72.707 43C72.707 37.4772 77.1842 33 82.707 33H429.293C434.816 33 439.293 37.4772 439.293 43V83C439.293 88.5228 434.816 93 429.293 93H82.707C77.1842 93 72.707 88.5228 72.707 83V43ZM92.707 53V73H419.293V53H92.707Z"
          fill="#00D151"/>
</svg>

<?xml version="1.0" encoding="utf-8"?>
<!-- Generator: Adobe Illustrator 28.2.0, SVG Export Plug-In . SVG Version: 6.00 Build 0)  -->
<svg version="1.1" id="Calque_1" xmlns="http://www.w3.org/2000/svg" xmlns:xlink="http://www.w3.org/1999/xlink" x="0px" y="0px"
	 viewBox="0 0 512 512" style="enable-background:new 0 0 512 512;" xml:space="preserve">
<style type="text/css">
	.st0{fill-rule:evenodd;clip-rule:evenodd;fill:#282828;}
	.st1{fill-rule:evenodd;clip-rule:evenodd;fill:#33B0DF;}
</style>
<path class="st0" d="M86,87c0-7.7,6.3-14,14-14h312c7.7,0,14,6.3,14,14v409c0,7.7-6.3,14-14,14H100c-7.7,0-14-6.3-14-14V87z M106,93
	v397h300V93H106z"/>
<path class="st0" d="M126,83c0-5.5,4.5-10,10-10h106c5.5,0,10,4.5,10,10v381c0,5.5-4.5,10-10,10H136c-5.5,0-10-4.5-10-10V83z
	 M146,93v361h86V93H146z"/>
<path class="st0" d="M264,83c0-5.5,4.5-10,10-10h106c5.5,0,10,4.5,10,10v381c0,5.5-4.5,10-10,10H274c-5.5,0-10-4.5-10-10V83z
	 M284,93v361h86V93H284z"/>
<path class="st1" d="M98.6,5c1.9-2.5,4.9-4,8-4h298.8c3.2,0,6.1,1.5,8,4l23.9,32c2.3,3,2.6,7.1,0.9,10.5c-1.7,3.4-5.2,5.5-8.9,5.5
	H82.7c-3.8,0-7.2-2.1-8.9-5.5c-1.7-3.4-1.3-7.4,0.9-10.5L98.6,5z M111.6,21l-9,12h306.7l-9-12H111.6z"/>
<path class="st1" d="M72.7,43c0-5.5,4.5-10,10-10h346.6c5.5,0,10,4.5,10,10v40c0,5.5-4.5,10-10,10H82.7c-5.5,0-10-4.5-10-10V43z
	 M92.7,53v20h326.6V53H92.7z"/>
</svg>
